logo-white.svg

<?xml version="1.0" encoding="UTF-8"?>
<svg id="svg4" xmlns="http://www.w3.org/2000/svg" version="1.1" xmlns:inkscape="http://www.inkscape.org/namespaces/inkscape" xmlns:sodipodi="http://sodipodi.sourceforge.net/DTD/sodipodi-0.dtd" xmlns:svg="http://www.w3.org/2000/svg" xmlns:xlink="http://www.w3.org/1999/xlink" viewBox="0 0 2420 1972">
  <!-- Generator: Adobe Illustrator 29.5.1, SVG Export Plug-In . SVG Version: 2.1.0 Build 141)  -->
  <defs>
    <style>
      .st0 {
        fill: #fff;
      }

      .st1 {
        fill: none;
      }

      .st2 {
        clip-path: url(#clippath);
      }
    </style>
    <clipPath id="clippath">
      <rect class="st1" y="0" width="2420" height="1971.5"/>
    </clipPath>
  </defs>
  <sodipodi:namedview id="namedview6" bordercolor="#666666" borderopacity="1.0" inkscape:current-layer="svg4" inkscape:cx="361" inkscape:cy="89" inkscape:deskcolor="#d1d1d1" inkscape:pagecheckerboard="0" inkscape:pageopacity="0.0" inkscape:pageshadow="2" inkscape:showpageshadow="0" inkscape:window-height="1051" inkscape:window-maximized="1" inkscape:window-width="1728" inkscape:window-x="0" inkscape:window-y="1088" inkscape:zoom="0.5" pagecolor="#ffffff" showgrid="false">
    <inkscape:grid id="grid4569" originx="-1e-05" originy="0" type="xygrid"/>
  </sodipodi:namedview>
  <g class="st2">
    <g>
      <path class="st0" d="M311.9,1649.6h-122.7v318.9h-65.6v-318.9H0v-57.6h311.9v57.6h0Z"/>
      <path class="st0" d="M594.6,1684.9c-3-3-7.5-7-14.4-10.9-6.5-4.5-14.9-8.4-23.8-12.4s-19.4-7-29.8-9.9c-10.9-2.5-21.9-4-33.3-4-22.8,0-39.7,4-50.7,11.9-10.9,7.9-16.9,19.9-16.9,35.3s3.5,19.9,9.9,26.3c6.5,6.5,16.9,11.9,29.8,16.4,13.4,4.5,29.8,8.9,50.2,13.9,25.3,6,46.7,13.4,65.1,21.9,18.4,8.4,32.3,19.9,42.2,33.8s14.9,31.8,14.9,54.6-3.5,36.3-10.9,50.2c-7.5,13.9-17.4,25.3-29.8,34.3-12.9,8.9-27.3,15.4-44.2,19.4-16.9,4-34.8,6-53.6,6s-37.3-2-56.1-6c-18.4-4-36.3-9.4-53.1-16.9-16.9-7.5-32.8-16.4-47.2-26.8l29.8-56.6c4,4.5,9.9,9.4,18.4,14.4,8.4,5,18.4,10.4,29.8,15.4,11.9,5,24.3,9.4,38.2,12.9,13.9,3.5,27.8,5.5,41.7,5.5,21.4,0,38.2-4,49.7-11.4s17.4-18.4,17.4-32.8-4-21.4-12.4-28.8-19.9-12.9-34.8-18.4c-14.9-5-32.8-10.4-53.6-15.4-24.3-6.5-44.7-13.9-61.1-22.4-16.4-7.9-28.3-18.4-36.8-30.8-7.9-12.4-12.4-28.3-12.4-47.7s6-46.2,18.4-63.6c12.4-17.4,28.8-30.3,49.2-39.2,20.9-8.9,43.7-13.4,69-13.4s34.3,2,49.7,5.5c15.4,3.5,29.8,8.9,43.7,14.9,13.4,6.5,25.8,13.4,36.3,21.4l-29.8,53.6h1.5Z"/>
      <path class="st0" d="M966.6,1910.9v57.6h-259.8v-376.5h255.3v57.6h-189.2v100.3h163.9v53.6h-163.9v107.3h194.2-.5Z"/>
      <path class="st0" d="M1102.2,1712.7v255.8h-65.6v-376.5h53.6l204.6,261.3v-260.8h65.1v376h-55.6l-202.2-255.8h0Z"/>
      <path class="st0" d="M1731.1,1649.6h-122.7v318.9h-65.6v-318.9h-123.7v-57.6h311.9v57.6h0Z"/>
      <path class="st0" d="M2050.4,1910.9v57.6h-259.8v-376.5h255.3v57.6h-189.2v100.3h163.9v53.6h-163.9v107.3h194.2-.5Z"/>
      <path class="st0" d="M2120.5,1968.5v-376.5h165.4c16.9,0,32.8,3.5,46.7,10.4,14.4,7,26.8,16.4,37.8,28.3,10.9,11.9,18.9,24.8,24.8,39.7,5.5,14.9,8.4,29.8,8.4,45.2s-3,31.8-8.9,46.7c-6,14.9-13.9,27.8-24.8,38.7s-23.3,19.4-37.8,25.3l87.4,142.1h-73l-79.5-129.6h-81v129.6h-66.1.5ZM2186.5,1781.7h98.8c9.9,0,18.9-3,26.8-8.9,7.9-6,14.4-13.9,18.9-24.3,4.5-9.9,7-21.4,7-33.3s-2.5-23.3-7.9-33.3-12.4-17.9-20.9-23.3c-8.4-6-17.4-8.9-26.8-8.9h-95.4v132.1h-.5Z"/>
      <path class="st0" d="M941.3,771.4c-66.6,0-120.7-54.1-120.7-120.7s54.1-120.7,120.7-120.7,120.7,54.1,120.7,120.7-54.1,120.7-120.7,120.7ZM941.3,600.5c-27.8,0-50.2,22.4-50.2,50.2s22.4,50.2,50.2,50.2,50.2-22.4,50.2-50.2-22.4-50.2-50.2-50.2Z"/>
      <path class="st0" d="M941.3,901c-138.1,0-250.3-112.3-250.3-250.3s112.3-250.3,250.3-250.3,250.3,112.3,250.3,250.3-112.3,250.3-250.3,250.3ZM941.3,470.9c-99.3,0-179.8,80.5-179.8,179.8s80.5,179.8,179.8,179.8,179.8-80.5,179.8-179.8-80.5-179.8-179.8-179.8Z"/>
      <path class="st0" d="M941.3,1030.2c-209.6,0-379.5-170.4-379.5-379.5s170.4-379.5,379.5-379.5,379.5,170.4,379.5,379.5-170.4,379.5-379.5,379.5ZM941.3,341.2c-170.9,0-309.5,138.6-309.5,309.5s138.6,309.5,309.5,309.5,309.5-138.6,309.5-309.5-138.6-309.5-309.5-309.5Z"/>
      <path class="st0" d="M941.3,1159.8c-280.6,0-509.1-228.5-509.1-509.1s228-509.1,509.1-509.1,509.1,228.5,509.1,509.1-228.5,509.1-509.1,509.1M941.3,211.6c-241.9,0-439.1,196.7-439.1,439.1s196.7,439.1,439.1,439.1,439.1-196.7,439.1-439.1-196.7-439.1-439.1-439.1Z"/>
      <path class="st0" d="M941.3,1289.5c-352.2,0-638.8-286.6-638.8-638.8S588.6,11.9,941.3,11.9s638.8,286.6,638.8,638.8-286.6,638.8-638.8,638.8M941.3,82.5c-313.4,0-568.2,254.8-568.2,568.2s254.8,568.2,568.2,568.2,568.2-254.8,568.2-568.2S1254.7,82.5,941.3,82.5Z"/>
      <path class="st0" d="M1492.1,0C1415.6,0,1342.1,13.4,1274.1,37.8c216.6,118.7,363.6,349.2,363.6,613.4s-147,494.2-363.6,612.9c68.1,24.3,141.6,37.3,217.6,37.3,359.1,0,650.7-291.1,650.7-650.7S1851.8,0,1492.1,0Z"/>
    </g>
  </g>
</svg>

<?xml version="1.0" encoding="UTF-8" standalone="no"?>
<!DOCTYPE svg PUBLIC "-//W3C//DTD SVG 1.1//EN" "http://www.w3.org/Graphics/SVG/1.1/DTD/svg11.dtd">
<svg width="100%" height="100%" viewBox="0 0 1000 286" version="1.1" xmlns="http://www.w3.org/2000/svg" xmlns:xlink="http://www.w3.org/1999/xlink" xml:space="preserve" xmlns:serif="http://www.serif.com/" style="fill-rule:evenodd;clip-rule:evenodd;stroke-linejoin:round;stroke-miterlimit:2;">
    <g transform="matrix(0.144908,0,0,0.144908,0,0)">
        <path d="M311.9,1649.6L189.2,1649.6L189.2,1968.5L123.6,1968.5L123.6,1649.6L0,1649.6L0,1592L311.9,1592L311.9,1649.6Z" style="fill:white;fill-rule:nonzero;"/>
        <path d="M594.6,1684.9C591.6,1681.9 587.1,1677.9 580.2,1674C573.7,1669.5 565.3,1665.6 556.4,1661.6C547.5,1657.6 537,1654.6 526.6,1651.7C515.7,1649.2 504.7,1647.7 493.3,1647.7C470.5,1647.7 453.6,1651.7 442.6,1659.6C431.7,1667.5 425.7,1679.5 425.7,1694.9C425.7,1710.3 429.2,1714.8 435.6,1721.2C442.1,1727.7 452.5,1733.1 465.4,1737.6C478.8,1742.1 495.2,1746.5 515.6,1751.5C540.9,1757.5 562.3,1764.9 580.7,1773.4C599.1,1781.8 613,1793.3 622.9,1807.2C632.8,1821.1 637.8,1839 637.8,1861.8C637.8,1884.6 634.3,1898.1 626.9,1912C619.4,1925.9 609.5,1937.3 597.1,1946.3C584.2,1955.2 569.8,1961.7 552.9,1965.7C536,1969.7 518.1,1971.7 499.3,1971.7C480.5,1971.7 462,1969.7 443.2,1965.7C424.8,1961.7 406.9,1956.3 390.1,1948.8C373.2,1941.3 357.3,1932.4 342.9,1922L372.7,1865.4C376.7,1869.9 382.6,1874.8 391.1,1879.8C399.5,1884.8 409.5,1890.2 420.9,1895.2C432.8,1900.2 445.2,1904.6 459.1,1908.1C473,1911.6 486.9,1913.6 500.8,1913.6C522.2,1913.6 539,1909.6 550.5,1902.2C562,1894.8 567.9,1883.8 567.9,1869.4C567.9,1855 563.9,1848 555.5,1840.6C547.1,1833.2 535.6,1827.7 520.7,1822.2C505.8,1817.2 487.9,1811.8 467.1,1806.8C442.8,1800.3 422.4,1792.9 406,1784.4C389.6,1776.5 377.7,1766 369.2,1753.6C361.3,1741.2 356.8,1725.3 356.8,1705.9C356.8,1686.5 362.8,1659.7 375.2,1642.3C387.6,1624.9 404,1612 424.4,1603.1C445.3,1594.2 468.1,1589.7 493.4,1589.7C518.7,1589.7 527.7,1591.7 543.1,1595.2C558.5,1598.7 572.9,1604.1 586.8,1610.1C600.2,1616.6 612.6,1623.5 623.1,1631.5L593.3,1685.1L594.8,1685.1L594.6,1684.9Z" style="fill:white;fill-rule:nonzero;"/>
        <path d="M966.6,1910.8L966.6,1968.5L706.8,1968.5L706.8,1592L962.1,1592L962.1,1649.6L772.9,1649.6L772.9,1749.9L936.8,1749.9L936.8,1803.5L772.9,1803.5L772.9,1910.8L967.1,1910.8L966.6,1910.8Z" style="fill:white;fill-rule:nonzero;"/>
        <path d="M1102.2,1712.7L1102.2,1968.5L1036.6,1968.5L1036.6,1592L1090.2,1592L1294.8,1853.3L1294.8,1592.5L1359.9,1592.5L1359.9,1968.5L1304.3,1968.5L1102.1,1712.7L1102.2,1712.7Z" style="fill:white;fill-rule:nonzero;"/>
        <path d="M1731.1,1649.6L1608.4,1649.6L1608.4,1968.5L1542.8,1968.5L1542.8,1649.6L1419.1,1649.6L1419.1,1592L1731,1592L1731,1649.6L1731.1,1649.6Z" style="fill:white;fill-rule:nonzero;"/>
        <path d="M2050.4,1910.8L2050.4,1968.5L1790.6,1968.5L1790.6,1592L2045.9,1592L2045.9,1649.6L1856.7,1649.6L1856.7,1749.9L2020.6,1749.9L2020.6,1803.5L1856.7,1803.5L1856.7,1910.8L2050.9,1910.8L2050.4,1910.8Z" style="fill:white;fill-rule:nonzero;"/>
        <path d="M2120.5,1968.5L2120.5,1592L2285.9,1592C2302.8,1592 2318.7,1595.5 2332.6,1602.4C2347,1609.4 2359.4,1618.8 2370.4,1630.7C2381.3,1642.6 2389.3,1655.5 2395.2,1670.4C2400.7,1685.3 2403.6,1700.2 2403.6,1715.6C2403.6,1731 2400.6,1747.4 2394.7,1762.3C2388.7,1777.2 2380.8,1790.1 2369.9,1801C2359,1811.9 2346.6,1820.4 2332.1,1826.3L2419.5,1968.4L2346.5,1968.4L2267,1838.8L2186,1838.8L2186,1968.4L2119.9,1968.4L2120.4,1968.4L2120.5,1968.5ZM2186.5,1781.7L2285.3,1781.7C2295.2,1781.7 2304.2,1778.7 2312.1,1772.8C2320,1766.8 2326.5,1758.9 2331,1748.5C2335.5,1738.6 2338,1727.1 2338,1715.2C2338,1703.3 2335.5,1691.9 2330.1,1681.9C2324.7,1671.9 2317.7,1664 2309.2,1658.6C2300.8,1652.6 2291.8,1649.7 2282.4,1649.7L2187,1649.7L2187,1781.8L2186.5,1781.8L2186.5,1781.7Z" style="fill:white;fill-rule:nonzero;"/>
        <path d="M941.3,771.4C874.7,771.4 820.6,717.3 820.6,650.7C820.6,584.1 874.7,530 941.3,530C1007.9,530 1062,584.1 1062,650.7C1062,717.3 1007.9,771.4 941.3,771.4ZM941.3,600.5C913.5,600.5 891.1,622.9 891.1,650.7C891.1,678.5 913.5,700.9 941.3,700.9C969.1,700.9 991.5,678.5 991.5,650.7C991.5,622.9 969.1,600.5 941.3,600.5Z" style="fill:white;fill-rule:nonzero;"/>
        <path d="M941.3,901C803.2,901 691,788.7 691,650.7C691,512.7 803.3,400.4 941.3,400.4C1079.3,400.4 1191.6,512.7 1191.6,650.7C1191.6,788.7 1079.3,901 941.3,901ZM941.3,470.9C842,470.9 761.5,551.4 761.5,650.7C761.5,750 842,830.5 941.3,830.5C1040.6,830.5 1121.1,750 1121.1,650.7C1121.1,551.4 1040.6,470.9 941.3,470.9Z" style="fill:white;fill-rule:nonzero;"/>
        <path d="M941.3,1030.2C731.7,1030.2 561.8,859.8 561.8,650.7C561.8,441.6 732.2,271.2 941.3,271.2C1150.4,271.2 1320.8,441.6 1320.8,650.7C1320.8,859.8 1150.4,1030.2 941.3,1030.2ZM941.3,341.2C770.4,341.2 631.8,479.8 631.8,650.7C631.8,821.6 770.4,960.2 941.3,960.2C1112.2,960.2 1250.8,821.6 1250.8,650.7C1250.8,479.8 1112.2,341.2 941.3,341.2Z" style="fill:white;fill-rule:nonzero;"/>
        <path d="M941.3,1159.8C660.7,1159.8 432.2,931.3 432.2,650.7C432.2,370.1 660.2,141.6 941.3,141.6C1222.4,141.6 1450.4,370.1 1450.4,650.7C1450.4,931.3 1221.9,1159.8 941.3,1159.8M941.3,211.6C699.4,211.6 502.2,408.3 502.2,650.7C502.2,893.1 698.9,1089.8 941.3,1089.8C1183.7,1089.8 1380.4,893.1 1380.4,650.7C1380.4,408.3 1183.7,211.6 941.3,211.6Z" style="fill:white;fill-rule:nonzero;"/>
        <path d="M941.3,1289.5C589.1,1289.5 302.5,1002.9 302.5,650.7C302.5,298.5 588.6,11.9 941.3,11.9C1294,11.9 1580.1,298.5 1580.1,650.7C1580.1,1002.9 1293.5,1289.5 941.3,1289.5M941.3,82.5C627.9,82.5 373.1,337.3 373.1,650.7C373.1,964.1 627.9,1218.9 941.3,1218.9C1254.7,1218.9 1509.5,964.1 1509.5,650.7C1509.5,337.3 1254.7,82.5 941.3,82.5Z" style="fill:white;fill-rule:nonzero;"/>
        <path d="M1492.1,0C1415.6,0 1342.1,13.4 1274.1,37.8C1490.7,156.5 1637.7,387 1637.7,651.2C1637.7,915.4 1490.7,1145.4 1274.1,1264.1C1342.2,1288.4 1415.7,1301.4 1491.7,1301.4C1850.8,1301.4 2142.4,1010.3 2142.4,650.7C2142.4,291.1 1851.8,0 1492.1,0Z" style="fill:white;fill-rule:nonzero;"/>
    </g>
</svg>
